X:1
T: Miss Johnston Robinson
C:
R:Reel
Q: 232
K:A
M:4/4
L:1/8
|:a|e2 A1/2A1/2A AG EF|=G2 AF GF ED|A2 A1/2A1/2A AB cd|ea ga ea ga|
e2 A1/2A1/2A AG EF|=G2 AF GF ED|A2 A1/2A1/2A AB cd|ed cB A2 cd|
ea a1/2a1/2a b1/2a1/2=g ef|=gf af gf eB|cB cd ef af|ed cB A2 cd|
ea a1/2a1/2a b1/2a1/2=g ef|=gf af gf eB|cB cd ef af|ed cB A3:|
